X: 2278
T: MURPHY DELANEY
R: Irish Jig.
%R: jig
B: James Kerr "Merry Melodies" v.2 p.30 #278
Z: 2016 John Chambers <jc:trillian.mit.edu>
M: 6/8
L: 1/8
K: Bb
|:\
B3  B3  | BAB def | B3  B3  | GcB AGF |\
B3  B3  | BAB def | gab fed | cdB AGF :|
|:\
def fgf | fgf fed | efg gag | gag gfe |\
def fgf | fgf fga | bag fed | cdB AGF :|
